X:140522
T:140522
M:9/8
K:Cmaj
|:eggec2|dedcAG|ecdBcG|A_BAGED:||:EGGAG2|EGGGA/2B/2c|EGGAG2|dedcAG:|

